X: 53
T:Contentment is 
R:Jig
M:6/8
L:1/8
Q:3/8=120
K:D
G/2A/2|:GFG Eed|BAB EAG|FAF DdB|AFD Def|
gfe edB|BAB dcd|(4BcdB DFA|GEE E2z:|
|:~e3 Beg|bge gfe|~d3 Adf|afd fed|
~e3 Beg|bge gfe|(4BcdB DFA|GEE E2:|
~g3~a3|bag fed|BdB DFA|GED E3|
